X: 33912
T: Red Rose, The
R: jig
M: 6/8
K: Gmajor
|:B|GAG GBd|geg e2d|ege dBG|ABA A2B|
GAG GBd|geg e2d|ege dBG|AGG G2:|
|:d|gab bag|fag ged|ege dBG|ABA A2B|
gab bag|gfg e2d|ege dBG|AGG G2:|

